icon-themes/breeze_svg/cmd/32/controlproperties.svg

<svg viewBox="0 0 32 32" xmlns="http://www.w3.org/2000/svg"><path d="m18.5 6a3.5 3.5 0 0 0 -3.458984 3h-11.041016v1h11.039062a3.5 3.5 0 0 0 3.460938 3 3.5 3.5 0 0 0 3.458984-3h6.041016v-1h-6.039062a3.5 3.5 0 0 0 -3.460938-3zm-11 13a3.5 3.5 0 0 0 -3.5 3.5 3.5 3.5 0 0 0 3.5 3.5 3.5 3.5 0 0 0 3.460938-3h17.039062v-1h-17.041016a3.5 3.5 0 0 0 -3.458984-3zm0 1a2.5 2.5 0 0 1 2.5 2.5 2.5 2.5 0 0 1 -2.5 2.5 2.5 2.5 0 0 1 -2.5-2.5 2.5 2.5 0 0 1 2.5-2.5z" fill="#4d4d4d"/></svg>

<svg xmlns="http://www.w3.org/2000/svg" viewBox="0 0 32 32">
 <path 
     style="fill:#4d4d4d" 
     d="M 18.5 6 A 3.5 3.5 0 0 0 15.041016 9 L 4 9 L 4 10 L 15.039062 10 A 3.5 3.5 0 0 0 18.5 13 A 3.5 3.5 0 0 0 21.958984 10 L 28 10 L 28 9 L 21.960938 9 A 3.5 3.5 0 0 0 18.5 6 z M 7.5 19 A 3.5 3.5 0 0 0 4 22.5 A 3.5 3.5 0 0 0 7.5 26 A 3.5 3.5 0 0 0 10.960938 23 L 28 23 L 28 22 L 10.958984 22 A 3.5 3.5 0 0 0 7.5 19 z M 7.5 20 A 2.5 2.5 0 0 1 10 22.5 A 2.5 2.5 0 0 1 7.5 25 A 2.5 2.5 0 0 1 5 22.5 A 2.5 2.5 0 0 1 7.5 20 z "
     />
</svg>
